static/img/pages/getQuestdb/linux.svg

<svg
  fill="none"
  height="49"
  viewBox="0 0 41 48"
  xmlns="http://www.w3.org/2000/svg"
>
  <path
    d="M29.967 30.6812C30.6494 30.8894 31.3045 31.1783 31.9184 31.5419C32.0499 31.6151 32.1769 31.6913 32.301 31.7556C32.6178 31.7272 33.1348 31.6181 33.5606 31.5299C34.325 31.3423 35.1066 31.2336 35.8931 31.2057C36.1636 31.2069 36.4336 31.2309 36.7 31.2774C36.7385 30.5701 36.7246 29.8608 36.6582 29.1556C36.2825 25.9867 35.0063 22.992 32.9809 20.5263C31.1056 18.4627 28.2172 15.4996 28.2172 13.2493V7.00182C28.1905 5.18357 27.4494 3.44885 26.1542 2.1725C24.8589 0.896144 23.1135 0.180664 21.2951 0.180664C19.4766 0.180664 17.7312 0.896144 16.436 2.1725C15.1407 3.44885 14.3997 5.18357 14.373 7.00182V16.1003C14.0741 17.6752 13.2852 17.8262 12.0479 19.552C10.8267 21.1773 9.85284 22.9744 9.15803 24.885C8.57976 26.6183 7.35746 28.4473 6.79712 29.8877C6.94417 29.8411 7.09386 29.8031 7.24539 29.7742C7.46979 29.7387 7.6966 29.7207 7.92378 29.7204C8.72166 29.7274 9.50395 29.9421 10.1935 30.3435C11.0507 26.8949 12.4595 23.6075 14.3655 20.6084C15.4786 18.8858 15.969 16.8342 15.7551 14.7943C16.4814 15.3711 17.2061 17.1687 19.18 17.1687C21.1539 17.1687 22.4823 15.6177 23.582 15.0678C23.8629 14.9275 24.1197 14.7434 24.3426 14.5224L24.5324 14.5672C26.2458 17.74 27.774 21.0094 29.1093 24.359C29.699 26.4139 29.9879 28.5434 29.967 30.6812ZM18.7093 10.588C18.3905 10.6535 18.0798 10.7537 17.7828 10.8869C17.729 10.9093 17.6797 10.9332 17.6334 10.9571C17.3724 11.0786 17.1224 11.2226 16.8863 11.3874C16.4764 10.9345 16.2356 10.3539 16.2049 9.74376C16.1078 8.58721 16.6128 7.60101 17.3331 7.54124C18.0533 7.48147 18.7138 8.36905 18.8109 9.5256C18.8391 9.88295 18.8047 10.2425 18.7093 10.588ZM23.4909 9.75572C23.453 10.3295 23.2609 10.8824 22.935 11.3561C22.8215 11.2948 22.6959 11.2335 22.5659 11.1708L22.4658 11.1244C22.3164 11.0527 22.1446 10.984 21.9652 10.9167H21.9458C21.5108 10.7578 21.0599 10.6461 20.601 10.5835C20.521 10.2329 20.4953 9.87208 20.5248 9.51365C20.6339 8.21066 21.3885 7.21101 22.2073 7.27975C23.0262 7.34848 23.6014 8.44825 23.4924 9.75572H23.4909Z"
    fill="#F35183"
  />
  <path
    d="M10.2593 34.5198C9.58391 33.4948 8.65748 32.5773 7.73254 32.7267C6.8076 32.8762 6.1576 34.5452 5.55691 35.0458C4.95622 35.5464 2.65508 35.0951 1.95577 35.8452C1.25646 36.5953 1.90496 39.2716 1.78094 40.5476C1.65692 41.8237 0.980023 42.4991 0.90531 43.0983C0.830598 43.6975 1.02933 44.3744 2.156 44.7749C3.28266 45.1753 7.483 46.2258 8.93391 46.55C10.3848 46.8743 13.7857 49.026 15.3861 46.426C16.6368 44.3938 15.8119 42.523 14.4357 40.9481C12.9234 38.8859 11.5291 36.7397 10.2593 34.5198Z"
    fill="#F35183"
  />
  <path
    d="M20.2063 43.2646C19.7416 43.2646 19.3097 43.2392 18.8794 43.1974C19.0091 43.8926 19.0227 44.6045 18.9197 45.3042C20.6371 45.2067 22.3599 45.2682 24.0659 45.488C23.9271 44.4076 23.9822 43.311 24.2288 42.25C22.9948 42.9216 21.6112 43.2706 20.2063 43.2646Z"
    fill="#F35183"
  />
  <path
    d="M39.8214 39.3971C38.7274 38.8971 37.8612 38.0043 37.3947 36.8957C37.1706 35.896 37.3708 34.9711 36.5953 34.3704C35.8198 33.7697 33.29 34.9143 31.7958 34.729C30.7498 34.5975 29.1868 32.9583 28.1199 33.6367C27.4863 34.0402 27.8211 35.645 27.842 36.4967C27.8116 38.2029 27.6858 39.906 27.4654 41.5981C27.2906 42.5738 25.9398 45.6505 28.5667 47.4003C30.3822 48.6106 32.4189 47.351 33.4693 46.3259C34.5561 45.2083 35.8141 44.271 37.196 43.5496C38.4433 43.0974 39.578 42.3807 40.5222 41.4487C40.9226 40.7733 40.8718 39.9978 39.8214 39.3971Z"
    fill="#F35183"
  />
</svg>

<svg fill="none" height="49" viewBox="0 0 41 48" xmlns="http://www.w3.org/2000/svg"><path d="M29.967 30.681a8.96 8.96 0 011.951.86c.132.074.259.15.383.215.317-.029.834-.138 1.26-.226a11.496 11.496 0 012.332-.324c.27 0 .54.025.807.071.038-.707.025-1.416-.042-2.121a16.69 16.69 0 00-3.677-8.63c-1.875-2.063-4.764-5.026-4.764-7.277V7.002a6.923 6.923 0 00-13.844 0V16.1c-.299 1.575-1.088 1.726-2.325 3.452a20.596 20.596 0 00-2.89 5.333c-.578 1.733-1.8 3.562-2.36 5.003.146-.047.296-.085.447-.114.225-.035.452-.053.679-.054.798.007 1.58.222 2.27.623a32.984 32.984 0 014.171-9.735 8.986 8.986 0 001.39-5.814c.726.577 1.451 2.375 3.425 2.375 1.974 0 3.302-1.551 4.402-2.101.28-.14.538-.325.76-.546l.19.045a93.377 93.377 0 014.577 9.792 22.12 22.12 0 01.858 6.322zM18.709 10.588a4.455 4.455 0 00-1.076.37 4.97 4.97 0 00-.747.43 2.648 2.648 0 01-.681-1.644c-.097-1.157.408-2.143 1.128-2.203.72-.06 1.38.828 1.478 1.985.028.357-.006.716-.102 1.062zm4.782-.832a3.195 3.195 0 01-.556 1.6 9.236 9.236 0 00-.37-.185l-.1-.047a6.287 6.287 0 00-.5-.207h-.02a6.467 6.467 0 00-1.344-.333 3.514 3.514 0 01-.076-1.07c.109-1.303.864-2.303 1.682-2.234.82.068 1.394 1.168 1.285 2.476h-.001zM10.26 34.52c-.676-1.025-1.603-1.943-2.527-1.793-.925.15-1.575 1.818-2.176 2.319-.6.5-2.902.05-3.601.8-.7.75-.051 3.426-.175 4.702-.124 1.276-.801 1.951-.876 2.55-.074.6.124 1.276 1.251 1.677 1.127.4 5.327 1.45 6.778 1.775 1.45.324 4.852 2.476 6.452-.124 1.25-2.032.426-3.903-.95-5.478a67.772 67.772 0 01-4.177-6.428zm9.946 8.745c-.464 0-.896-.026-1.327-.068a6.37 6.37 0 01.04 2.107 27.899 27.899 0 015.147.184 9.152 9.152 0 01.163-3.238 8.34 8.34 0 01-4.023 1.015zm19.615-3.868a4.795 4.795 0 01-2.426-2.501c-.224-1-.024-1.925-.8-2.526-.775-.6-3.305.544-4.8.359-1.045-.132-2.608-1.77-3.675-1.092-.634.403-.299 2.008-.278 2.86a45.815 45.815 0 01-.377 5.101c-.174.976-1.525 4.053 1.102 5.802 1.815 1.21 3.852-.049 4.902-1.074a14.664 14.664 0 013.727-2.776 9.197 9.197 0 003.326-2.101c.4-.676.35-1.451-.7-2.052z" fill="#F35183"/></svg>
